images/telegram.svg

<svg width="24" height="24" viewBox="0 0 24 24" fill="none" xmlns="http://www.w3.org/2000/svg">
<path d="M11.944 3.26667e-05C8.77112 0.0148396 5.73324 1.28566 3.4949 3.53449C1.25656 5.78332 -3.4549e-05 8.82711 7.12435e-10 12C7.12441e-10 15.1826 1.26428 18.2349 3.51472 20.4853C5.76515 22.7358 8.8174 24 12 24C15.1826 24 18.2348 22.7358 20.4853 20.4853C22.7357 18.2349 24 15.1826 24 12C24 8.81744 22.7357 5.76519 20.4853 3.51475C18.2348 1.26431 15.1826 3.26667e-05 12 3.26667e-05C11.9813 -1.08889e-05 11.9627 -1.08889e-05 11.944 3.26667e-05ZM16.906 7.22403C17.006 7.22203 17.227 7.24703 17.371 7.36403C17.4667 7.44713 17.5277 7.56311 17.542 7.68903C17.558 7.78203 17.578 7.99503 17.562 8.16103C17.382 10.059 16.6 14.663 16.202 16.788C16.034 17.688 15.703 17.989 15.382 18.018C14.686 18.083 14.157 17.558 13.482 17.116C12.426 16.423 11.829 15.992 10.804 15.316C9.619 14.536 10.387 14.106 11.062 13.406C11.239 13.222 14.309 10.429 14.369 10.176C14.376 10.144 14.383 10.026 14.313 9.96403C14.243 9.90203 14.139 9.92303 14.064 9.94003C13.958 9.96403 12.271 11.08 9.003 13.285C8.523 13.615 8.09 13.775 7.701 13.765C7.273 13.757 6.449 13.524 5.836 13.325C5.084 13.08 4.487 12.951 4.539 12.536C4.566 12.32 4.864 12.099 5.432 11.873C8.93 10.349 11.262 9.34403 12.43 8.85903C15.762 7.47303 16.455 7.23203 16.906 7.22403Z" fill="white"/>
</svg>

<svg xmlns="http://www.w3.org/2000/svg" width="24" height="24" fill="none"><path fill="#fff" d="M11.944 0a12 12 0 1 0 .112 24 12 12 0 0 0-.112-24Zm4.962 7.224c.1-.002.321.023.465.14.096.083.157.2.171.325.016.093.036.306.02.472-.18 1.898-.962 6.502-1.36 8.627-.168.9-.499 1.201-.82 1.23-.696.065-1.225-.46-1.9-.902-1.056-.693-1.653-1.124-2.678-1.8-1.185-.78-.417-1.21.258-1.91.177-.184 3.247-2.977 3.307-3.23.007-.032.014-.15-.056-.212s-.174-.041-.249-.024c-.106.024-1.793 1.14-5.061 3.345-.48.33-.913.49-1.302.48-.428-.008-1.252-.241-1.865-.44-.752-.245-1.349-.374-1.297-.789.027-.216.325-.437.893-.663 3.498-1.524 5.83-2.529 6.998-3.014 3.332-1.386 4.025-1.627 4.476-1.635Z"/></svg>
